; generated by PrusaSlicer 2.2.0+win64 on 2020-09-20 at 10:30:29 UTC

; 

; external perimeters extrusion width = 0.45mm
; perimeters extrusion width = 0.45mm
; infill extrusion width = 0.45mm
; solid infill extrusion width = 0.45mm
; top infill extrusion width = 0.40mm
; first layer extrusion width = 0.42mm

M107
M190 S60 ; set bed temperature and wait for it to be reached
M104 S215 ; set temperature
G28 ; home all axes
G1 Z5 F5000 ; lift nozzle
M109 S215 ; set temperature and wait for it to be reached
G21 ; set units to millimeters
G90 ; use absolute coordinates
M82 ; use absolute distances for extrusion
G92 E0
; Filament gcode
G1 Z0.350 F7800.000
G1 E-2.00000 F2400.00000
G92 E0
G1 X26.863 Y32.224 F7800.000
G1 E2.00000 F2400.00000
G1 F1800.000
G1 X27.444 Y30.764 E2.07890
G1 X27.954 Y29.869 E2.13061
G1 X28.655 Y28.920 E2.18980
G1 X29.378 Y28.152 E2.24275
G1 X30.198 Y27.461 E2.29654
G1 X31.174 Y26.820 E2.35514
G1 X32.127 Y26.345 E2.40857
G1 X33.125 Y25.984 E2.46185
G1 X34.280 Y25.716 E2.52136
G1 X65.089 Y23.393 E4.07195
G1 X70.503 Y23.380 E4.34364
G1 X71.501 Y23.425 E4.39378
G1 X72.680 Y23.592 E4.45351
G1 X140.976 Y37.053 E7.94699
G1 X167.146 Y47.380 E9.35890
G1 X168.243 Y47.953 E9.42100
G1 X169.208 Y48.630 E9.48014
G1 X170.148 Y49.492 E9.54414
G1 X170.965 Y50.480 E9.60851
G1 X171.536 Y51.378 E9.66189
G1 X172.001 Y52.337 E9.71539
G1 X172.384 Y53.450 E9.77446
G1 X172.608 Y54.495 E9.82812
G1 X184.205 Y135.552 E13.93743
G1 X184.210 Y142.267 E14.27447
G1 X184.025 Y143.652 E14.34459
G1 X178.378 Y165.073 E15.45632
G1 X177.999 Y165.993 E15.50624
G1 X177.478 Y166.847 E15.55647
G1 X176.833 Y167.604 E15.60639
G1 X176.077 Y168.251 E15.65631
G1 X174.904 Y168.927 E15.72426
G1 X173.608 Y169.341 E15.79252
G1 X140.718 Y175.456 E17.47147
G1 X62.014 Y175.571 E21.42131
G1 X60.534 Y175.394 E21.49609
G1 X59.675 Y175.121 E21.54134
G1 X58.863 Y174.730 E21.58658
G1 X58.115 Y174.226 E21.63183
G1 X57.441 Y173.618 E21.67739
G1 X16.935 Y129.929 E24.66733
G1 X16.446 Y129.142 E24.71382
G1 X16.076 Y128.293 E24.76032
G1 X15.833 Y127.392 E24.80712
G1 X15.724 Y126.472 E24.85361
G1 X16.410 Y118.018 E25.27930
G1 X26.526 Y33.838 E29.53434
G1 X26.850 Y32.283 E29.61405
G1 E27.61405 F2400.00000
G92 E0
G1 X123.234 Y139.724 F7800.000
G1 E2.00000 F2400.00000
G1 F1800.000
G1 X123.241 Y140.089 E2.01834
G1 X122.423 Y140.029 E2.05953
G1 X116.148 Y140.024 E2.37445
G1 X115.552 Y141.018 E2.43262
G1 X115.382 Y141.414 E2.45420
G1 X115.258 Y141.809 E2.47501
G1 X115.175 Y142.216 E2.49583
G1 X115.144 Y142.524 E2.51141
G1 X108.872 Y142.524 E2.82617
G1 X104.687 Y141.370 E3.04405
G1 X104.687 Y156.224 E3.78951
G1 X120.534 Y156.219 E4.58484
G1 X120.949 Y156.177 E4.60574
G1 X121.379 Y156.088 E4.62778
G1 X121.934 Y155.897 E4.65725
G1 X122.317 Y155.709 E4.67864
G1 X122.669 Y155.490 E4.69949
G1 X122.998 Y155.235 E4.72034
G1 X123.227 Y155.017 E4.73623
G1 X123.227 Y168.024 E5.38899
G1 X117.426 Y168.024 E5.68009
G1 X117.426 Y162.024 E5.98121
G1 X85.413 Y162.024 E7.58784
G1 X85.413 Y156.227 E7.87878
G1 X92.068 Y156.223 E8.21279
G1 X92.086 Y155.805 E8.23377
G1 X92.355 Y156.064 E8.25250
G1 X92.836 Y156.415 E8.28240
G1 X93.210 Y156.618 E8.30376
G1 X93.593 Y156.775 E8.32451
G1 X93.990 Y156.890 E8.34526
G1 X94.409 Y156.964 E8.36661
G1 X95.004 Y156.988 E8.39651
G1 X95.428 Y156.948 E8.41787
G1 X95.845 Y156.863 E8.43922
G1 X96.408 Y156.666 E8.46912
G1 X96.787 Y156.474 E8.49048
G1 X97.145 Y156.241 E8.51193
G1 X97.609 Y155.837 E8.54277
G1 X97.877 Y155.533 E8.56312
G1 X98.018 Y155.336 E8.57527
G1 X98.162 Y155.382 E8.58286
G1 X98.162 Y156.223 E8.62510
G1 X104.386 Y156.223 E8.93749
G1 X104.386 Y141.024 E9.70026
G1 X97.100 Y141.024 E10.06591
G1 X96.519 Y141.069 E10.09519
G1 X95.915 Y141.208 E10.12630
G1 X95.349 Y141.433 E10.15685
G1 X94.967 Y141.644 E10.17874
G1 X94.484 Y141.997 E10.20878
G1 X94.158 Y142.305 E10.23128
G1 X93.780 Y142.766 E10.26119
G1 X93.469 Y143.288 E10.29170
G1 X93.300 Y143.678 E10.31303
G1 X93.170 Y144.082 E10.33435
G1 X93.061 Y144.669 E10.36430
G1 X92.795 Y149.186 E10.59139
G1 X93.421 Y149.573 E10.62833
G1 X93.210 Y149.659 E10.63977
G1 X92.847 Y149.856 E10.66052
G1 X92.418 Y150.152 E10.68669
G1 X92.712 Y145.335 E10.92890
G1 X92.703 Y144.757 E10.95793
G1 X92.640 Y144.320 E10.98005
G1 X92.478 Y143.737 E11.01042
G1 X92.300 Y143.319 E11.03326
G1 X91.998 Y142.800 E11.06339
G1 X91.605 Y142.312 E11.09481
G1 X91.142 Y141.890 E11.12627
G1 X90.620 Y141.543 E11.15772
G1 X90.051 Y141.280 E11.18918
G1 X89.459 Y141.110 E11.22005
G1 X89.035 Y141.045 E11.24160
G1 X88.643 Y141.024 E11.26129
G1 X79.886 Y141.024 E11.70077
G1 X79.886 Y135.961 E11.95487
G1 X96.738 Y67.940 E15.47176
G1 X95.584 Y67.250 E15.53922
G1 X95.190 Y67.081 E15.56076
G1 X94.784 Y66.955 E15.58206
G1 X94.184 Y66.848 E15.61268
G1 X93.192 Y66.827 E15.66248
G1 X93.002 Y66.808 E15.67203
G1 X92.710 Y66.740 E15.68707
G1 X92.443 Y66.633 E15.70153
G1 X92.185 Y66.481 E15.71656
G1 X91.902 Y66.238 E15.73528
G1 X91.667 Y65.934 E15.75456
G1 X91.498 Y65.589 E15.77384
G1 X91.404 Y65.230 E15.79248
G1 X91.378 Y64.893 E15.80944
G1 X91.378 Y55.955 E16.25800
G1 X91.389 Y55.749 E16.26835
G1 X91.442 Y55.454 E16.28339
G1 X91.535 Y55.181 E16.29785
G1 X91.668 Y54.926 E16.31231
G1 X91.839 Y54.694 E16.32677
G1 X92.043 Y54.490 E16.34123
G1 X92.275 Y54.319 E16.35570
G1 X92.530 Y54.186 E16.37016
G1 X92.803 Y54.093 E16.38462
G1 X93.098 Y54.040 E16.39965
G1 X93.304 Y54.030 E16.41001
G1 X98.537 Y54.030 E16.67264
G1 X98.554 Y54.217 E16.68210
G1 X98.293 Y54.266 E16.69547
G1 X97.592 Y54.485 E16.73232
G1 X97.119 Y54.685 E16.75807
G1 X96.481 Y55.031 E16.79449
G1 X96.057 Y55.319 E16.82024
G1 X95.498 Y55.782 E16.85665
G1 X95.143 Y56.141 E16.88196
G1 X94.817 Y56.526 E16.90727
G1 X94.405 Y57.123 E16.94369
G1 X94.155 Y57.571 E16.96944
G1 X93.863 Y58.245 E17.00629
G1 X93.651 Y58.948 E17.04315
G1 X93.552 Y59.451 E17.06890
G1 X93.481 Y60.173 E17.10532
G1 X93.481 Y60.678 E17.13063
G1 X93.520 Y61.180 E17.15594
G1 X93.648 Y61.903 E17.19279
G1 X93.860 Y62.607 E17.22965
G1 X94.056 Y63.081 E17.25540
G1 X94.396 Y63.722 E17.29181
G1 X94.679 Y64.150 E17.31757
G1 X95.137 Y64.713 E17.35398
G1 X95.498 Y65.077 E17.37973
G1 X96.057 Y65.541 E17.41614
G1 X96.481 Y65.828 E17.44190
G1 X97.119 Y66.175 E17.47831
G1 X97.584 Y66.371 E17.50366
G1 X98.075 Y66.534 E17.52963
G1 X98.778 Y66.694 E17.56580
G1 X99.508 Y66.773 E17.60264
G1 X100.012 Y66.778 E17.62795
G1 X100.516 Y66.743 E17.65326
G1 X101.240 Y66.622 E17.69012
G1 X101.945 Y66.417 E17.72697
G1 X102.421 Y66.226 E17.75273
G1 X103.066 Y65.893 E17.78914
G1 X103.496 Y65.613 E17.81489
G1 X104.063 Y65.161 E17.85130
G1 X104.431 Y64.803 E17.87706
G1 X104.900 Y64.250 E17.91347
G1 X105.192 Y63.827 E17.93922
G1 X105.545 Y63.193 E17.97564
G1 X105.749 Y62.723 E18.00139
G1 X105.972 Y62.032 E18.03780
G1 X106.079 Y61.539 E18.06311
G1 X106.148 Y61.040 E18.08842
G1 X106.177 Y60.306 E18.12528
G1 X106.119 Y59.574 E18.16213
G1 X106.030 Y59.069 E18.18789
G1 X105.834 Y58.370 E18.22430
G1 X105.651 Y57.900 E18.24961
G1 X105.432 Y57.445 E18.27492
G1 X105.055 Y56.825 E18.31137
G1 X104.738 Y56.404 E18.33779
G1 X104.257 Y55.880 E18.37352
G1 X103.876 Y55.537 E18.39925
G1 X103.290 Y55.107 E18.43570
G1 X102.838 Y54.838 E18.46212
G1 X102.185 Y54.533 E18.49829
G1 X101.489 Y54.300 E18.53513
G1 X101.108 Y54.213 E18.55474
G1 X101.128 Y54.030 E18.56403
G1 X115.426 Y54.030 E19.28158
G1 X115.426 Y50.280 E19.46978
G1 X118.426 Y50.280 E19.62034
G1 X118.426 Y44.280 E19.92145
G1 X123.227 Y44.280 E20.16237
G1 X123.227 Y135.024 E24.71648
G1 X122.926 Y135.024 E24.73157
G1 X122.926 Y117.888 E25.59160
G1 X118.972 Y104.477 E26.29328
G1 X122.926 Y104.477 E26.49173
G1 X122.926 Y76.777 E27.88186
G1 X117.926 Y76.777 E28.13279
G1 X117.926 Y76.043 E28.16963
G1 X116.755 Y75.781 E28.22986
G1 X116.491 Y75.675 E28.24414
G1 X116.243 Y75.529 E28.25860
G1 X116.019 Y75.347 E28.27306
G1 X115.826 Y75.133 E28.28753
G1 X115.667 Y74.893 E28.30199
G1 X115.547 Y74.631 E28.31645
G1 X115.465 Y74.343 E28.33149
G1 X115.426 Y73.947 E28.35147
G1 X115.426 Y66.830 E28.70862
G1 X101.929 Y66.830 E29.38600
G1 X101.536 Y66.850 E29.40573
G1 X101.111 Y66.916 E29.42732
G1 X100.519 Y67.087 E29.45825
G1 X99.949 Y67.351 E29.48977
G1 X99.426 Y67.699 E29.52128
G1 X98.963 Y68.123 E29.55280
G1 X98.569 Y68.612 E29.58432
G1 X98.261 Y69.146 E29.61525
G1 X98.095 Y69.543 E29.63684
G1 X97.981 Y69.919 E29.65657
G1 X82.687 Y131.656 E32.84858
G1 X82.687 Y137.724 E33.15309
G1 X84.926 Y137.724 E33.26548
G1 X84.926 Y139.724 E33.36586
G1 X123.174 Y139.724 E35.28536
G1 X123.081 Y139.379 F7800.000
G1 F1800.000
G1 X85.271 Y139.379 E37.18288
G1 X85.271 Y137.379 E37.28325
G1 X83.032 Y137.379 E37.39565
G1 X83.032 Y131.698 E37.68074
G1 X98.314 Y70.011 E40.87019
G1 X98.420 Y69.660 E40.88859
G1 X98.571 Y69.299 E40.90819
G1 X98.855 Y68.808 E40.93669
G1 X99.215 Y68.359 E40.96555
G1 X99.640 Y67.971 E40.99441
G1 X100.118 Y67.653 E41.02327
G1 X100.640 Y67.411 E41.05213
G1 X101.186 Y67.253 E41.08063
G1 X101.572 Y67.194 E41.10023
G1 X101.938 Y67.175 E41.11863
G1 X115.081 Y67.175 E41.77826
G1 X115.081 Y73.955 E42.11854
G1 X115.127 Y74.417 E42.14181
G1 X115.223 Y74.751 E42.15926
G1 X115.365 Y75.061 E42.17636
G1 X115.552 Y75.345 E42.19346
G1 X115.781 Y75.598 E42.21055
G1 X116.045 Y75.813 E42.22765
G1 X116.339 Y75.986 E42.24475
G1 X116.653 Y76.112 E42.26174
G1 X117.581 Y76.319 E42.30949
G1 X117.581 Y79.122 E42.45015
G1 X118.072 Y79.122 E42.47475
G1 X118.072 Y77.122 E42.57512
G1 X122.581 Y77.122 E42.80145
G1 X122.581 Y104.132 E44.15696
G1 X118.511 Y104.132 E44.36125
G1 X122.581 Y117.937 E45.08358
G1 X122.581 Y135.369 E45.95842
G1 X123.081 Y135.369 E45.98351
G1 X123.081 Y139.319 E46.18174
G1 X122.736 Y139.034 F7800.000
G1 F1800.000
G1 X85.616 Y139.034 E48.04464
G1 X85.616 Y137.034 E48.14501
G1 X83.377 Y137.034 E48.25741
G1 X83.377 Y131.741 E48.52308
G1 X98.647 Y70.102 E51.70997
G1 X98.745 Y69.776 E51.72704
G1 X98.881 Y69.453 E51.74465
G1 X99.140 Y69.003 E51.77072
G1 X99.467 Y68.596 E51.79692
G1 X99.853 Y68.244 E51.82312
G1 X100.287 Y67.954 E51.84933
G1 X100.761 Y67.735 E51.87553
G1 X101.260 Y67.591 E51.90159
G1 X101.607 Y67.537 E51.91920
G1 X101.947 Y67.520 E51.93628
G1 X114.737 Y67.520 E52.57815
G1 X114.737 Y73.964 E52.90156
G1 X114.750 Y74.234 E52.91512
G1 X114.789 Y74.491 E52.92815
G1 X114.898 Y74.871 E52.94802
G1 X115.063 Y75.228 E52.96776
G1 X115.279 Y75.557 E52.98749
G1 X115.543 Y75.849 E53.00723
G1 X115.847 Y76.097 E53.02696
G1 X116.186 Y76.297 E53.04669
G1 X116.551 Y76.442 E53.06639
G1 X117.237 Y76.596 E53.10166
G1 X117.237 Y79.467 E53.24577
G1 X118.417 Y79.467 E53.30498
G1 X118.417 Y77.467 E53.40536
G1 X122.237 Y77.467 E53.59707
G1 X122.237 Y103.787 E54.91796
G1 X118.417 Y103.787 E55.10967
G1 X118.417 Y101.787 E55.21004
G1 X117.460 Y101.787 E55.25806
G1 X122.236 Y117.987 E56.10568
G1 X122.236 Y135.714 E56.99533
G1 X122.736 Y135.714 E57.02042
G1 X122.736 Y138.974 E57.18403
G1 X122.756 Y139.434 F7800.000
G1 E55.18403 F2400.00000
G92 E0
G1 X101.163 Y66.285 F7800.000
G1 E2.00000 F2400.00000
G1 F1800.000
G1 X100.475 Y66.400 E2.03500
G1 X100.002 Y66.433 E2.05879
G1 X99.528 Y66.428 E2.08258
G1 X98.835 Y66.353 E2.11756
G1 X98.168 Y66.202 E2.15189
G1 X97.706 Y66.048 E2.17633
G1 X97.269 Y65.863 E2.20015
G1 X96.661 Y65.533 E2.23487
G1 X96.264 Y65.264 E2.25893
G1 X95.731 Y64.823 E2.29366
G1 X95.394 Y64.482 E2.31772
G1 X94.957 Y63.945 E2.35244
G1 X94.692 Y63.546 E2.37650
G1 X94.368 Y62.934 E2.41123
G1 X94.186 Y62.491 E2.43529
G1 X93.985 Y61.823 E2.47028
G1 X93.863 Y61.137 E2.50528
G1 X93.826 Y60.664 E2.52907
G1 X93.826 Y60.190 E2.55286
G1 X93.893 Y59.501 E2.58758
G1 X93.986 Y59.031 E2.61165
G1 X94.187 Y58.363 E2.64664
G1 X94.465 Y57.724 E2.68164
G1 X94.698 Y57.305 E2.70570
G1 X95.092 Y56.736 E2.74042
G1 X95.398 Y56.374 E2.76421
G1 X95.731 Y56.037 E2.78800
G1 X96.264 Y55.595 E2.82273
G1 X96.661 Y55.326 E2.84679
G1 X97.269 Y54.996 E2.88151
G1 X97.710 Y54.809 E2.90557
G1 X98.376 Y54.602 E2.94057
G1 X99.067 Y54.472 E2.97583
G1 X99.749 Y54.425 E3.01015
G1 X100.241 Y54.439 E3.03487
G1 X100.928 Y54.526 E3.06962
G1 X101.396 Y54.633 E3.09368
G1 X102.057 Y54.853 E3.12867
G1 X102.676 Y55.144 E3.16299
G1 X103.100 Y55.395 E3.18771
G1 X103.658 Y55.805 E3.22246
G1 X104.014 Y56.125 E3.24651
G1 X104.473 Y56.625 E3.28056
G1 X104.769 Y57.019 E3.30528
G1 X105.129 Y57.610 E3.34003
G1 X105.335 Y58.037 E3.36382
G1 X105.506 Y58.479 E3.38761
G1 X105.693 Y59.145 E3.42233
G1 X105.777 Y59.617 E3.44639
G1 X105.831 Y60.313 E3.48139
G1 X105.804 Y61.009 E3.51639
G1 X105.740 Y61.479 E3.54017
G1 X105.639 Y61.942 E3.56396
G1 X105.426 Y62.601 E3.59869
G1 X105.235 Y63.040 E3.62275
G1 X104.899 Y63.645 E3.65747
G1 X104.626 Y64.040 E3.68154
G1 X104.179 Y64.568 E3.71626
G1 X103.835 Y64.902 E3.74032
G1 X103.294 Y65.333 E3.77504
G1 X102.892 Y65.594 E3.79911
G1 X102.278 Y65.912 E3.83383
G1 X101.833 Y66.090 E3.85789
G1 X101.221 Y66.268 E3.88988
G1 X101.086 Y65.948 F7800.000
G1 F1800.000
G1 X100.435 Y66.057 E3.92301
G1 X99.992 Y66.088 E3.94528
G1 X99.548 Y66.083 E3.96755
G1 X98.892 Y66.013 E4.00068
G1 X98.261 Y65.869 E4.03317
G1 X97.828 Y65.725 E4.05608
G1 X97.419 Y65.552 E4.07836
G1 X96.840 Y65.238 E4.11140
G1 X96.471 Y64.988 E4.13377
G1 X95.965 Y64.568 E4.16680
G1 X95.651 Y64.251 E4.18917
G1 X95.236 Y63.741 E4.22221
G1 X94.989 Y63.369 E4.24458
G1 X94.681 Y62.788 E4.27761
G1 X94.511 Y62.375 E4.29998
G1 X94.321 Y61.743 E4.33312
G1 X94.205 Y61.093 E4.36626
G1 X94.171 Y60.651 E4.38853
G1 X94.171 Y60.207 E4.41079
G1 X94.235 Y59.552 E4.44383
G1 X94.321 Y59.115 E4.46620
G1 X94.512 Y58.482 E4.49934
G1 X94.775 Y57.877 E4.53247
G1 X94.991 Y57.487 E4.55485
G1 X95.366 Y56.946 E4.58788
G1 X95.652 Y56.607 E4.61015
G1 X95.965 Y56.292 E4.63242
G1 X96.471 Y55.871 E4.66545
G1 X96.840 Y55.621 E4.68782
G1 X97.419 Y55.307 E4.72086
G1 X97.829 Y55.134 E4.74323
G1 X98.460 Y54.937 E4.77636
G1 X99.110 Y54.815 E4.80960
G1 X99.756 Y54.770 E4.84208
G1 X100.215 Y54.783 E4.86510
G1 X100.868 Y54.866 E4.89815
G1 X101.302 Y54.965 E4.92052
G1 X101.929 Y55.174 E4.95365
G1 X102.515 Y55.449 E4.98613
G1 X102.909 Y55.683 E5.00915
G1 X103.440 Y56.073 E5.04219
G1 X103.771 Y56.371 E5.06456
G1 X104.207 Y56.846 E5.09694
G1 X104.484 Y57.212 E5.11996
G1 X104.826 Y57.775 E5.15301
G1 X105.018 Y58.175 E5.17527
G1 X105.179 Y58.588 E5.19754
G1 X105.356 Y59.222 E5.23058
G1 X105.434 Y59.661 E5.25295
G1 X105.486 Y60.319 E5.28609
G1 X105.460 Y60.979 E5.31922
G1 X105.400 Y61.419 E5.34149
G1 X105.305 Y61.852 E5.36376
G1 X105.103 Y62.479 E5.39679
G1 X104.925 Y62.888 E5.41916
G1 X104.606 Y63.463 E5.45220
G1 X104.352 Y63.830 E5.47457
G1 X103.927 Y64.332 E5.50760
G1 X103.607 Y64.643 E5.52998
G1 X103.092 Y65.053 E5.56301
G1 X102.718 Y65.296 E5.58538
G1 X102.134 Y65.598 E5.61841
G1 X101.720 Y65.764 E5.64079
G1 X101.144 Y65.932 E5.67091
G1 X100.966 Y66.330 F7800.000
G1 E3.67091 F2400.00000
G92 E0
G1 X96.341 Y68.105 F7800.000
G1 E2.00000 F2400.00000
G1 F1800.000
G1 X95.427 Y67.558 E2.05346
G1 X95.070 Y67.405 E2.07295
G1 X94.703 Y67.291 E2.09228
G1 X94.150 Y67.192 E2.12046
G1 X93.171 Y67.172 E2.16961
G1 X92.946 Y67.149 E2.18096
G1 X92.607 Y67.070 E2.19841
G1 X92.291 Y66.944 E2.21551
G1 X91.991 Y66.768 E2.23296
G1 X91.652 Y66.476 E2.25540
G1 X91.374 Y66.117 E2.27819
G1 X91.174 Y65.709 E2.30098
G1 X91.062 Y65.278 E2.32334
G1 X91.033 Y64.906 E2.34206
G1 X91.045 Y55.710 E2.80359
G1 X91.107 Y55.367 E2.82104
G1 X91.217 Y55.045 E2.83814
G1 X91.375 Y54.743 E2.85524
G1 X91.576 Y54.468 E2.87233
G1 X91.817 Y54.228 E2.88943
G1 X92.092 Y54.026 E2.90653
G1 X92.394 Y53.868 E2.92363
G1 X92.716 Y53.758 E2.94073
G1 X93.058 Y53.697 E2.95818
G1 X93.295 Y53.685 E2.97007
G1 X115.081 Y53.685 E4.06343
G1 X115.081 Y49.935 E4.25163
G1 X118.081 Y49.935 E4.40219
G1 X118.081 Y43.935 E4.70330
G1 X123.572 Y43.935 E4.97884
G1 X123.571 Y139.306 E9.76514
G1 X123.600 Y140.462 E9.82315
G1 X122.410 Y140.374 E9.88303
G1 X116.343 Y140.369 E10.18751
G1 X115.860 Y141.175 E10.23469
G1 X115.706 Y141.533 E10.25422
G1 X115.593 Y141.896 E10.27328
G1 X115.516 Y142.268 E10.29234
G1 X115.478 Y142.644 E10.31133
G1 X115.477 Y142.869 E10.32263
G1 X108.825 Y142.869 E10.65646
G1 X105.032 Y141.823 E10.85396
G1 X105.032 Y155.879 E11.55937
G1 X120.517 Y155.875 E12.33651
G1 X120.896 Y155.836 E12.35564
