; generated by PrusaSlicer 2.2.0+win64 on 2020-09-21 at 19:38:38 UTC


;
;

;
;
; 

; external perimeters extrusion width = 0.45mm
; perimeters extrusion width = 0.45mm
; infill extrusion width = 0.45mm
; solid infill extrusion width = 0.45mm
; top infill extrusion width = 0.40mm
; first layer extrusion width = 0.42mm

M73 P0 R78
M201 X1250 Y1250 Z400 E5000 ; sets maximum accelerations, mm/sec^2
M203 X180 Y180 Z12 E80 ; sets maximum feedrates, mm/sec
M204 P1250 R1250 T1250 ; sets acceleration (P, T) and retract acceleration (R), mm/sec^2
M205 X8.00 Y8.00 Z2.00 E10.00 ; sets the jerk limits, mm/sec
M205 S0 T0 ; sets the minimum extruding and travel feed rate, mm/sec
M107
G90 ; use absolute coordinates
M83 ; extruder relative mode
M104 S170 ; set extruder temp for bed leveling
M140 S60 ; set bed temp
M109 R170 ; wait for bed leveling temp
M190 S60 ; wait for bed temp
G28 ; home all without mesh bed level
G29 ; mesh bed leveling 
M104 S215 ; set extruder temp
G92 E0.0
G1 Y-2.0 X179 F2400
G1 Z3 F720
M109 S215 ; wait for extruder temp

; intro line
G1 X170 F1000
G1 Z0.2 F720
G1 X110.0 E8.0 F900
M73 P0 R78
G1 X40.0 E10.0 F700
G92 E0.0

M221 S95 ; set flow
G21 ; set units to millimeters
G90 ; use absolute coordinates
M83 ; use relative distances for extrusion
M900 K0.2 ; Filament gcode LA 1.5
; ; Filament gcode LA 1.0
;BEFORE_LAYER_CHANGE
G92 E0.0
;0.35


G1 Z0.350 F7800.000
;AFTER_LAYER_CHANGE
;0.35
G1 E-3.20000 F4200.00000
G1 Z0.550 F7800.000
G1 X91.095 Y64.082
G1 Z0.350
G1 E3.20000 F2400.00000
G1 F1800.000
G1 X91.916 Y62.958 E0.06981
G1 X116.358 Y36.167 E1.82002
G1 X117.231 Y35.319 E0.06106
G1 X118.033 Y34.680 E0.05147
G1 X119.234 Y33.920 E0.07133
G1 X120.674 Y33.256 E0.07959
G1 X122.038 Y32.835 E0.07166
G1 X123.446 Y32.589 E0.07172
G1 X124.658 Y32.521 E0.06093
G1 X138.736 Y32.521 E0.70649
G1 X140.843 Y32.720 E0.10624
G1 X142.746 Y33.256 E0.09921
G1 X144.653 Y34.190 E0.10659
G1 X146.354 Y35.465 E0.10664
G1 X147.696 Y36.916 E0.09920
G1 X148.833 Y38.706 E0.10642
G1 X149.616 Y40.675 E0.10637
G1 X150.003 Y42.594 E0.09823
G1 X151.819 Y104.745 E3.12043
G1 X151.780 Y152.456 E2.39442
G1 X151.592 Y153.432 E0.04992
G1 X151.253 Y154.368 E0.04992
G1 X150.773 Y155.239 E0.04992
G1 X150.162 Y156.024 E0.04992
G1 X149.436 Y156.704 E0.04992
G1 X148.613 Y157.262 E0.04992
G1 X147.713 Y157.685 E0.04992
G1 X146.758 Y157.962 E0.04992
G1 X145.503 Y158.093 E0.06329
G1 X124.617 Y158.053 E1.04820
G1 X123.833 Y157.915 E0.03995
G1 X123.067 Y157.677 E0.04026
G1 X96.701 Y147.407 E1.42000
G1 X95.164 Y146.469 E0.09037
G1 X93.928 Y145.355 E0.08350
G1 X92.842 Y143.934 E0.08978
G1 X92.046 Y142.330 E0.08988
G1 X91.621 Y140.868 E0.07638
G1 X91.439 Y139.345 E0.07699
G1 X89.688 Y78.166 E3.07155
G1 X89.687 Y68.984 E0.46081
G1 X89.742 Y68.001 E0.04943
G1 X89.992 Y66.648 E0.06904
G1 X90.446 Y65.326 E0.07019
G1 X91.068 Y64.135 E0.06741
G1 E-2.24000 F4200.00000
G1 F6240.000
G1 X91.902 Y62.978 E-0.91200
G1 E-0.04800 F4200.00000
G1 Z0.550 F7800.000
G1 X100.451 Y70.391
G1 Z0.350
G1 E3.20000 F2400.00000
G1 F1800.000
G1 X100.845 Y69.821 E0.03474
G1 X101.154 Y69.456 E0.02406
G1 X101.645 Y68.979 E0.03433
G1 X102.025 Y68.675 E0.02444
G1 X102.606 Y68.298 E0.03474
G1 X103.032 Y68.077 E0.02406
G1 X103.674 Y67.820 E0.03472
G1 X104.134 Y67.686 E0.02406
G1 X104.820 Y67.558 E0.03499
G1 X105.508 Y67.511 E0.03461
G1 X105.994 Y67.524 E0.02444
G1 X106.681 Y67.612 E0.03474
G1 X107.149 Y67.719 E0.02406
G1 X107.810 Y67.939 E0.03500
G1 X108.441 Y68.236 E0.03500
G1 X108.849 Y68.478 E0.02379
G1 X109.236 Y68.751 E0.02379
G1 X109.764 Y69.207 E0.03499
G1 X110.230 Y69.715 E0.03461
G1 X110.522 Y70.105 E0.02444
G1 X110.882 Y70.696 E0.03474
G1 X111.088 Y71.123 E0.02379
G1 X111.259 Y71.565 E0.02379
G1 X111.446 Y72.231 E0.03472
G1 X111.530 Y72.703 E0.02406
G1 X111.584 Y73.392 E0.03467
G1 X111.574 Y73.872 E0.02411
G1 X111.494 Y74.559 E0.03473
G1 X111.392 Y75.028 E0.02406
G1 X111.179 Y75.686 E0.03472
G1 X110.988 Y76.126 E0.02406
G1 X110.649 Y76.736 E0.03500
G1 X110.242 Y77.301 E0.03500
G1 X109.928 Y77.657 E0.02379
G1 X109.588 Y77.987 E0.02379
G1 X109.043 Y78.422 E0.03499
G1 X108.458 Y78.786 E0.03461
G1 X108.021 Y79.002 E0.02444
G1 X107.374 Y79.247 E0.03474
G1 X106.916 Y79.370 E0.02379
G1 X106.450 Y79.458 E0.02379
G1 X105.755 Y79.519 E0.03499
G1 X105.066 Y79.499 E0.03461
G1 X104.583 Y79.438 E0.02444
G1 X103.916 Y79.286 E0.03435
G1 X103.454 Y79.132 E0.02444
G1 X102.821 Y78.850 E0.03474
G1 X102.405 Y78.613 E0.02406
G1 X101.839 Y78.214 E0.03472
G1 X101.477 Y77.901 E0.02406
G1 X101.005 Y77.406 E0.03433
G1 X100.708 Y77.027 E0.02417
G1 X100.445 Y76.631 E0.02380
G1 X100.119 Y76.015 E0.03500
G1 X99.866 Y75.365 E0.03500
G1 X99.738 Y74.909 E0.02379
G1 X99.646 Y74.444 E0.02379
G1 X99.578 Y73.750 E0.03499
G1 X99.591 Y73.061 E0.03461
G1 X99.648 Y72.577 E0.02444
G1 X99.793 Y71.908 E0.03435
G1 X99.942 Y71.445 E0.02444
G1 X100.215 Y70.817 E0.03435
G1 X100.422 Y70.443 E0.02143
G1 X100.744 Y70.573 F7800.000
G1 F1800.000
G1 X101.119 Y70.031 E0.03304
G1 X101.407 Y69.691 E0.02237
G1 X101.873 Y69.238 E0.03265
G1 X102.227 Y68.955 E0.02275
G1 X102.780 Y68.596 E0.03304
G1 X103.175 Y68.391 E0.02237
G1 X103.787 Y68.147 E0.03303
G1 X104.215 Y68.022 E0.02237
G1 X104.863 Y67.901 E0.03313
G1 X105.515 Y67.856 E0.03275
G1 X105.968 Y67.869 E0.02275
G1 X106.621 Y67.952 E0.03304
G1 X107.055 Y68.051 E0.02237
G1 X107.682 Y68.260 E0.03314
G1 X108.279 Y68.541 E0.03314
G1 X108.661 Y68.768 E0.02227
G1 X109.023 Y69.023 E0.02227
G1 X109.523 Y69.455 E0.03313
G1 X109.964 Y69.936 E0.03276
G1 X110.237 Y70.298 E0.02275
G1 X110.579 Y70.861 E0.03304
G1 X110.771 Y71.261 E0.02227
G1 X110.932 Y71.674 E0.02227
G1 X111.109 Y72.308 E0.03303
G1 X111.187 Y72.747 E0.02237
G1 X111.239 Y73.402 E0.03298
G1 X111.230 Y73.849 E0.02242
G1 X111.153 Y74.502 E0.03303
G1 X111.058 Y74.938 E0.02237
G1 X110.856 Y75.564 E0.03303
G1 X110.678 Y75.973 E0.02237
G1 X110.358 Y76.550 E0.03314
G1 X109.972 Y77.086 E0.03314
G1 X109.678 Y77.419 E0.02227
G1 X109.360 Y77.728 E0.02227
G1 X108.844 Y78.140 E0.03313
G1 X108.290 Y78.485 E0.03276
G1 X107.883 Y78.686 E0.02275
G1 X107.267 Y78.918 E0.03304
G1 X106.839 Y79.034 E0.02227
G1 X106.403 Y79.116 E0.02227
G1 X105.745 Y79.174 E0.03313
G1 X105.093 Y79.155 E0.03276
G1 X104.643 Y79.098 E0.02275
G1 X104.009 Y78.953 E0.03266
G1 X103.578 Y78.810 E0.02275
G1 X102.977 Y78.542 E0.03304
G1 X102.590 Y78.322 E0.02237
G1 X102.052 Y77.942 E0.03303
G1 X101.715 Y77.651 E0.02237
G1 X101.266 Y77.180 E0.03265
G1 X100.987 Y76.825 E0.02265
G1 X100.742 Y76.455 E0.02227
G1 X100.433 Y75.872 E0.03314
G1 X100.194 Y75.256 E0.03314
G1 X100.074 Y74.829 E0.02227
G1 X99.988 Y74.394 E0.02227
G1 X99.923 Y73.736 E0.03313
G1 X99.936 Y73.084 E0.03276
G1 X99.988 Y72.634 E0.02275
G1 X100.127 Y71.998 E0.03266
G1 X100.265 Y71.566 E0.02275
G1 X100.524 Y70.969 E0.03266
G1 X100.715 Y70.625 E0.01974
G1 X100.555 Y70.221 F7800.000
G1 E-2.24000 F4200.00000
G1 F6240.000
G1 X101.119 Y70.031 E-0.45914
G1 X101.407 Y69.691 E-0.28501
G1 X101.595 Y69.508 E-0.16785
G1 E-0.04800 F4200.00000
G1 Z0.550 F7800.000
G1 X104.307 Y67.303
G1 Z0.350
G1 E3.20000 F2400.00000
G1 F1800.000
G1 X104.054 Y67.351 E0.01292
G1 X103.562 Y67.494 E0.02575
G1 X102.888 Y67.763 E0.03641
G1 X102.432 Y67.999 E0.02575
G1 X101.823 Y68.395 E0.03644
G1 X101.416 Y68.720 E0.02614
G1 X100.902 Y69.220 E0.03602
G1 X100.570 Y69.611 E0.02574
G1 X100.158 Y70.209 E0.03644
G1 X99.905 Y70.664 E0.02614
G1 X99.619 Y71.323 E0.03604
G1 X99.460 Y71.818 E0.02613
G1 X99.307 Y72.520 E0.03604
G1 X99.247 Y73.037 E0.02613
G1 X99.233 Y73.764 E0.03646
G1 X99.305 Y74.494 E0.03684
G1 X99.402 Y74.989 E0.02531
G1 X99.538 Y75.475 E0.02531
G1 X99.804 Y76.159 E0.03686
G1 X100.149 Y76.808 E0.03686
G1 X100.428 Y77.229 E0.02533
G1 X100.743 Y77.632 E0.02570
G1 X101.238 Y78.151 E0.03602
G1 X101.627 Y78.486 E0.02574
G1 X102.219 Y78.905 E0.03641
G1 X102.666 Y79.158 E0.02575
G1 X103.329 Y79.454 E0.03644
G1 X103.823 Y79.618 E0.02614
G1 X104.309 Y79.729 E0.02500
G1 X104.288 Y79.913 E0.00928
G1 X98.935 Y79.912 E0.26862
G1 X98.556 Y79.854 E0.01929
G1 X98.206 Y79.725 E0.01871
G1 X97.938 Y79.567 E0.01561
G1 X97.795 Y79.456 E0.00908
G1 X97.663 Y79.332 E0.00908
G1 X97.467 Y79.091 E0.01561
G1 X97.286 Y78.764 E0.01871
G1 X97.220 Y78.584 E0.00965
G1 X97.174 Y78.409 E0.00908
G1 X97.135 Y78.100 E0.01561
G1 X97.135 Y68.931 E0.46018
G1 X97.174 Y68.622 E0.01561
G1 X97.282 Y68.277 E0.01814
G1 X97.427 Y68.002 E0.01561
G1 X97.530 Y67.853 E0.00908
G1 X97.648 Y67.716 E0.00908
G1 X97.879 Y67.507 E0.01561
G1 X98.018 Y67.411 E0.00851
G1 X98.283 Y67.272 E0.01504
G1 X98.556 Y67.179 E0.01446
G1 X98.851 Y67.126 E0.01503
G1 X104.290 Y67.115 E0.27297
G1 X104.302 Y67.243 E0.00645
G1 E-2.24000 F4200.00000
G1 F6240.000
G1 X104.054 Y67.351 E-0.17248
G1 X103.562 Y67.494 E-0.32811
G1 X102.964 Y67.733 E-0.41141
G1 E-0.04800 F4200.00000
G1 Z0.550 F7800.000
G1 X106.861 Y67.299
G1 Z0.350
G1 E3.20000 F2400.00000
G1 F1800.000
G1 X106.881 Y67.115 E0.00928
G1 X120.791 Y67.115 E0.69806
G1 X120.795 Y43.713 E1.17449
G1 X120.819 Y43.407 E0.01537
G1 X120.936 Y42.816 E0.03026
G1 X121.089 Y42.374 E0.02348
G1 X121.293 Y41.953 E0.02348
G1 X121.444 Y41.707 E0.01448
G1 X121.732 Y41.327 E0.02393
G1 X122.159 Y40.900 E0.03027
G1 X122.399 Y40.711 E0.01537
G1 X122.646 Y40.546 E0.01492
G1 X123.059 Y40.325 E0.02348
G1 X123.495 Y40.155 E0.02348
G1 X124.081 Y40.014 E0.03026
G1 X124.385 Y39.978 E0.01536
G1 X124.711 Y39.965 E0.01635
G1 X138.883 Y39.969 E0.71123
G1 X139.179 Y39.992 E0.01493
G1 X139.648 Y40.076 E0.02393
G1 X140.222 Y40.263 E0.03027
G1 X140.500 Y40.391 E0.01537
G1 X140.759 Y40.536 E0.01492
G1 X141.150 Y40.809 E0.02393
G1 X141.593 Y41.219 E0.03027
G1 X141.786 Y41.445 E0.01492
G1 X142.059 Y41.836 E0.02393
G1 X142.204 Y42.095 E0.01492
G1 X142.328 Y42.365 E0.01492
G1 X142.485 Y42.816 E0.02393
G1 X142.552 Y43.096 E0.01448
G1 X142.617 Y43.568 E0.02392
G1 X142.630 Y43.885 E0.01591
G1 X142.630 Y89.666 E2.29754
G1 X139.829 Y89.666 E0.14054
G1 X139.829 Y47.766 E2.10279
G1 X128.980 Y47.766 E0.54449
G1 X128.980 Y89.666 E2.10279
G1 X124.679 Y89.666 E0.21582
G1 X124.679 Y79.916 E0.48931
G1 X106.910 Y79.913 E0.89175
G1 X106.893 Y79.726 E0.00946
G1 X107.480 Y79.576 E0.03039
G1 X108.159 Y79.319 E0.03644
G1 X108.626 Y79.088 E0.02614
G1 X109.242 Y78.704 E0.03646
G1 X109.816 Y78.247 E0.03685
G1 X110.178 Y77.895 E0.02531
G1 X110.512 Y77.517 E0.02531
G1 X110.941 Y76.921 E0.03686
G1 X111.298 Y76.279 E0.03686
G1 X111.502 Y75.808 E0.02575
G1 X111.725 Y75.118 E0.03641
G1 X111.834 Y74.616 E0.02575
G1 X111.919 Y73.896 E0.03642
G1 X111.929 Y73.382 E0.02580
G1 X111.872 Y72.659 E0.03636
G1 X111.783 Y72.154 E0.02575
G1 X111.587 Y71.456 E0.03641
G1 X111.404 Y70.986 E0.02531
G1 X111.185 Y70.531 E0.02531
G1 X110.808 Y69.911 E0.03644
G1 X110.495 Y69.495 E0.02614
G1 X110.004 Y68.959 E0.03646
G1 X109.449 Y68.479 E0.03684
G1 X109.037 Y68.188 E0.02531
G1 X108.603 Y67.931 E0.02531
G1 X107.938 Y67.618 E0.03686
G1 X107.242 Y67.386 E0.03686
G1 X106.919 Y67.312 E0.01661
G1 E-2.24000 F4200.00000
G1 F6240.000
G1 X106.881 Y67.115 E-0.12833
G1 X108.107 Y67.115 E-0.78367
G1 E-0.04800 F4200.00000
G1 Z0.550 F7800.000
G1 X139.484 Y48.111
G1 Z0.350
G1 E3.20000 F2400.00000
G1 F1800.000
G1 X129.325 Y48.111 E0.50988
G1 X129.325 Y90.011 E2.10279
G1 X124.334 Y90.011 E0.25044
G1 X124.334 Y80.261 E0.48931
G1 X98.918 Y80.257 E1.27555
G1 X98.469 Y80.188 E0.02279
G1 X98.050 Y80.033 E0.02244
G1 X97.744 Y79.853 E0.01781
G1 X97.570 Y79.718 E0.01106
G1 X97.410 Y79.567 E0.01106
G1 X97.186 Y79.292 E0.01781
G1 X96.969 Y78.901 E0.02244
G1 X96.890 Y78.687 E0.01141
G1 X96.835 Y78.474 E0.01106
G1 X96.790 Y78.122 E0.01781
G1 X96.790 Y68.909 E0.46237
G1 X96.835 Y68.557 E0.01781
G1 X96.890 Y68.344 E0.01106
G1 X96.967 Y68.137 E0.01106
G1 X97.131 Y67.823 E0.01781
G1 X97.400 Y67.475 E0.02208
G1 X97.664 Y67.237 E0.01781
G1 X97.839 Y67.115 E0.01070
G1 X98.147 Y66.954 E0.01745
G1 X98.469 Y66.844 E0.01710
G1 X98.811 Y66.782 E0.01745
G1 X99.048 Y66.770 E0.01189
G1 X120.446 Y66.770 E1.07387
G1 X120.450 Y43.699 E1.15786
G1 X120.476 Y43.367 E0.01673
G1 X120.528 Y43.037 E0.01673
G1 X120.605 Y42.719 E0.01645
G1 X120.770 Y42.241 E0.02535
G1 X120.991 Y41.787 E0.02535
G1 X121.159 Y41.512 E0.01618
G1 X121.467 Y41.105 E0.02563
G1 X121.690 Y40.864 E0.01645
G1 X121.934 Y40.638 E0.01673
G1 X122.196 Y40.432 E0.01673
G1 X122.469 Y40.249 E0.01645
G1 X122.914 Y40.011 E0.02535
G1 X123.385 Y39.827 E0.02535
G1 X123.700 Y39.738 E0.01645
G1 X124.027 Y39.673 E0.01673
G1 X124.358 Y39.634 E0.01672
G1 X124.704 Y39.620 E0.01737
G1 X138.896 Y39.624 E0.71225
G1 X139.223 Y39.650 E0.01646
G1 X139.726 Y39.740 E0.02563
G1 X140.041 Y39.829 E0.01645
G1 X140.354 Y39.944 E0.01673
G1 X140.657 Y40.084 E0.01673
G1 X140.943 Y40.244 E0.01645
G1 X141.362 Y40.536 E0.02563
G1 X141.611 Y40.749 E0.01645
G1 X141.846 Y40.984 E0.01673
G1 X142.059 Y41.234 E0.01645
G1 X142.351 Y41.652 E0.02563
G1 X142.512 Y41.939 E0.01645
G1 X142.649 Y42.236 E0.01645
G1 X142.816 Y42.719 E0.02563
G1 X142.891 Y43.032 E0.01618
G1 X142.961 Y43.538 E0.02563
G1 X142.975 Y43.878 E0.01710
G1 X142.975 Y90.011 E2.31519
G1 X139.484 Y90.011 E0.17516
G1 X139.484 Y48.171 E2.09978
G1 X139.140 Y48.456 F7800.000
G1 F1800.000
G1 X129.670 Y48.456 E0.47526
G1 X129.670 Y90.356 E2.10279
G1 X123.990 Y90.356 E0.28506
G1 X123.990 Y80.606 E0.48931
G1 X98.900 Y80.602 E1.25912
G1 X98.639 Y80.575 E0.01317
G1 X98.382 Y80.523 E0.01317
G1 X98.132 Y80.444 E0.01317
G1 X97.894 Y80.342 E0.01303
G1 X97.550 Y80.139 E0.02000
G1 X97.345 Y79.980 E0.01303
G1 X97.157 Y79.802 E0.01303
G1 X96.905 Y79.493 E0.02000
G1 X96.767 Y79.272 E0.01303
G1 X96.652 Y79.037 E0.01317
G1 X96.561 Y78.791 E0.01317
G1 X96.496 Y78.539 E0.01303
G1 X96.445 Y78.144 E0.02000
G1 X96.445 Y68.887 E0.46457
G1 X96.496 Y68.492 E0.02000
G1 X96.561 Y68.240 E0.01303
G1 X96.651 Y67.997 E0.01303
G1 X96.835 Y67.644 E0.02000
G1 X96.984 Y67.430 E0.01303
G1 X97.153 Y67.233 E0.01303
G1 X97.449 Y66.966 E0.02000
G1 X97.660 Y66.819 E0.01290
G1 X98.010 Y66.636 E0.01987
G1 X98.383 Y66.509 E0.01973
G1 X98.772 Y66.439 E0.01987
G1 X99.039 Y66.426 E0.01343
G1 X120.101 Y66.426 E1.05700
G1 X120.105 Y43.685 E1.14124
G1 X120.133 Y43.326 E0.01809
G1 X120.190 Y42.970 E0.01809
G1 X120.273 Y42.622 E0.01798
G1 X120.451 Y42.109 E0.02722
G1 X120.688 Y41.621 E0.02722
G1 X120.874 Y41.317 E0.01788
G1 X121.202 Y40.883 E0.02733
G1 X121.446 Y40.620 E0.01798
G1 X121.710 Y40.375 E0.01809
G1 X121.993 Y40.152 E0.01809
G1 X122.291 Y39.953 E0.01798
G1 X122.770 Y39.698 E0.02722
G1 X123.275 Y39.500 E0.02722
G1 X123.620 Y39.403 E0.01798
G1 X123.973 Y39.332 E0.01809
G1 X124.331 Y39.290 E0.01809
G1 X124.697 Y39.276 E0.01839
G1 X138.910 Y39.279 E0.71327
G1 X139.267 Y39.307 E0.01798
G1 X139.803 Y39.403 E0.02733
G1 X140.148 Y39.500 E0.01798
G1 X140.486 Y39.625 E0.01809
G1 X140.813 Y39.776 E0.01809
G1 X141.126 Y39.951 E0.01798
G1 X141.573 Y40.262 E0.02733
G1 X141.845 Y40.495 E0.01798
G1 X142.100 Y40.750 E0.01809
G1 X142.333 Y41.022 E0.01798
G1 X142.644 Y41.469 E0.02733
G1 X142.819 Y41.782 E0.01798
G1 X142.969 Y42.107 E0.01798
G1 X143.147 Y42.622 E0.02733
G1 X143.231 Y42.968 E0.01788
G1 X143.305 Y43.507 E0.02733
G1 X143.320 Y43.872 E0.01829
G1 X143.320 Y90.356 E2.33284
G1 X139.140 Y90.356 E0.20978
G1 X139.140 Y48.516 E2.09978
G1 X139.126 Y48.056 F7800.000
G1 X139.853 Y47.662
G1 F1800.000
G1 X132.417 Y40.226 E0.52866
G1 X131.928 Y40.226 E0.02457
G1 X139.210 Y47.507 E0.51764
G1 X138.721 Y47.507 E0.02456
G1 X131.440 Y40.226 E0.51764
G1 X130.951 Y40.226 E0.02457
G1 X138.233 Y47.507 E0.51765
G1 X137.744 Y47.507 E0.02456
G1 X130.462 Y40.225 E0.51766
G1 X129.974 Y40.225 E0.02457
G1 X137.255 Y47.507 E0.51767
G1 X136.767 Y47.507 E0.02456
G1 X129.485 Y40.225 E0.51768
G1 X128.996 Y40.225 E0.02457
G1 X136.278 Y47.507 E0.51769
G1 X135.790 Y47.507 E0.02456
G1 X128.508 Y40.225 E0.51770
G1 X128.019 Y40.225 E0.02457
G1 X135.301 Y47.507 E0.51771
G1 X134.813 Y47.507 E0.02456
G1 X127.530 Y40.225 E0.51772
G1 X127.042 Y40.225 E0.02457
G1 X134.324 Y47.507 E0.51773
G1 X133.835 Y47.507 E0.02456
G1 X126.553 Y40.224 E0.51774
G1 X126.064 Y40.224 E0.02457
G1 X133.347 Y47.507 E0.51775
G1 X132.858 Y47.507 E0.02456
G1 X125.575 Y40.224 E0.51775
G1 X125.087 Y40.224 E0.02457
