; generated by PrusaSlicer 2.2.0+win64 on 2020-09-21 at 19:39:07 UTC


;
;

;
;
; 

; external perimeters extrusion width = 0.45mm
; perimeters extrusion width = 0.45mm
; infill extrusion width = 0.45mm
; solid infill extrusion width = 0.45mm
; top infill extrusion width = 0.40mm
; first layer extrusion width = 0.42mm

M73 P0 R143
M201 X1250 Y1250 Z400 E5000 ; sets maximum accelerations, mm/sec^2
M203 X180 Y180 Z12 E80 ; sets maximum feedrates, mm/sec
M204 P1250 R1250 T1250 ; sets acceleration (P, T) and retract acceleration (R), mm/sec^2
M205 X8.00 Y8.00 Z2.00 E10.00 ; sets the jerk limits, mm/sec
M205 S0 T0 ; sets the minimum extruding and travel feed rate, mm/sec
M107
G90 ; use absolute coordinates
M83 ; extruder relative mode
M104 S170 ; set extruder temp for bed leveling
M140 S60 ; set bed temp
M109 R170 ; wait for bed leveling temp
M190 S60 ; wait for bed temp
G28 ; home all without mesh bed level
G29 ; mesh bed leveling 
M104 S215 ; set extruder temp
G92 E0.0
G1 Y-2.0 X179 F2400
G1 Z3 F720
M109 S215 ; wait for extruder temp

; intro line
G1 X170 F1000
G1 Z0.2 F720
G1 X110.0 E8.0 F900
M73 P0 R143
G1 X40.0 E10.0 F700
G92 E0.0

M221 S95 ; set flow
G21 ; set units to millimeters
G90 ; use absolute coordinates
M83 ; use relative distances for extrusion
M900 K0.2 ; Filament gcode LA 1.5
; ; Filament gcode LA 1.0
;BEFORE_LAYER_CHANGE
G92 E0.0
;0.35


G1 Z0.350 F7800.000
;AFTER_LAYER_CHANGE
;0.35
G1 E-3.20000 F4200.00000
G1 Z0.550 F7800.000
G1 X19.239 Y23.311
G1 Z0.350
G1 E3.20000 F2400.00000
G1 F1800.000
G1 X18.768 Y21.846 E0.07726
G1 X18.654 Y20.714 E0.05708
G1 X18.654 Y10.582 E0.50851
G1 X18.721 Y9.726 E0.04307
G1 X18.904 Y8.887 E0.04307
G1 X19.202 Y8.070 E0.04369
G1 X19.613 Y7.295 E0.04400
G1 X20.123 Y6.590 E0.04369
G1 X20.725 Y5.961 E0.04369
G1 X21.407 Y5.420 E0.04369
G1 X22.157 Y4.977 E0.04369
G1 X22.960 Y4.642 E0.04369
G1 X23.801 Y4.419 E0.04369
G1 X24.989 Y4.305 E0.05987
G1 X110.005 Y4.305 E4.26660
G1 X114.092 Y4.469 E0.20529
G1 X118.207 Y4.966 E0.20803
G1 X120.810 Y5.456 E0.13293
G1 X122.806 Y5.928 E0.10290
G1 X126.732 Y7.109 E0.20578
G1 X130.586 Y8.613 E0.20760
G1 X134.270 Y10.404 E0.20557
G1 X137.808 Y12.488 E0.20607
G1 X141.163 Y14.844 E0.20576
G1 X144.322 Y17.463 E0.20595
G1 X147.256 Y20.321 E0.20554
G1 X149.956 Y23.406 E0.20577
G1 X152.427 Y26.735 E0.20804
G1 X154.599 Y30.212 E0.20574
G1 X155.579 Y32.013 E0.10290
G1 X156.736 Y34.391 E0.13273
G1 X158.297 Y38.227 E0.20785
G1 X159.534 Y42.138 E0.20583
G1 X160.315 Y45.426 E0.16961
G1 X160.800 Y48.200 E0.14137
G1 X161.180 Y51.555 E0.16942
G1 X161.339 Y54.961 E0.17114
G1 X161.342 Y169.487 E5.74757
G1 X161.239 Y170.495 E0.05085
G1 X160.976 Y171.480 E0.05116
G1 X160.557 Y172.409 E0.05116
G1 X159.999 Y173.255 E0.05085
G1 X159.314 Y174.002 E0.05085
G1 X158.513 Y174.633 E0.05116
G1 X157.622 Y175.127 E0.05116
G1 X156.669 Y175.471 E0.05085
G1 X155.883 Y175.633 E0.04026
G1 X155.089 Y175.694 E0.03995
G1 X144.272 Y175.653 E0.54287
G1 X143.147 Y175.419 E0.05770
G1 X142.088 Y174.988 E0.05739
G1 X141.118 Y174.370 E0.05770
G1 X140.276 Y173.587 E0.05770
G1 X20.045 Y24.615 E9.60742
G1 X19.270 Y23.362 E0.07394
G1 E-2.24000 F4200.00000
G1 F6240.000
G1 X18.821 Y22.008 E-0.91200
G1 E-0.04800 F4200.00000
G1 Z0.550 F7800.000
G1 X146.779 Y136.417
G1 Z0.350
G1 E3.20000 F2400.00000
G1 F1800.000
G1 X146.995 Y136.096 E0.01940
G1 X147.242 Y135.799 E0.01941
G1 X147.519 Y135.529 E0.01941
G1 X147.823 Y135.289 E0.01941
G1 X148.149 Y135.081 E0.01940
G1 X148.495 Y134.909 E0.01941
G1 X148.857 Y134.772 E0.01941
G1 X149.230 Y134.674 E0.01941
G1 X149.612 Y134.614 E0.01938
G1 X149.986 Y134.594 E0.01878
G1 X150.569 Y134.637 E0.02933
G1 X150.955 Y134.718 E0.01982
G1 X151.324 Y134.836 E0.01941
G1 X151.678 Y134.991 E0.01941
G1 X152.014 Y135.181 E0.01941
G1 X152.330 Y135.405 E0.01940
G1 X152.620 Y135.660 E0.01941
G1 X152.883 Y135.944 E0.01941
G1 X153.119 Y136.259 E0.01976
G1 X153.398 Y136.751 E0.02838
G1 X153.546 Y137.116 E0.01976
G1 X153.654 Y137.487 E0.01941
G1 X153.723 Y137.868 E0.01940
G1 X153.753 Y138.253 E0.01941
G1 X153.743 Y138.640 E0.01941
G1 X153.694 Y139.023 E0.01941
G1 X153.605 Y139.400 E0.01941
G1 X153.478 Y139.765 E0.01941
G1 X153.314 Y140.115 E0.01940
G1 X153.115 Y140.447 E0.01941
G1 X152.883 Y140.756 E0.01941
G1 X152.620 Y141.040 E0.01941
G1 X152.330 Y141.295 E0.01941
G1 X152.014 Y141.519 E0.01940
G1 X151.678 Y141.709 E0.01941
G1 X151.324 Y141.864 E0.01941
G1 X150.955 Y141.982 E0.01941
G1 X150.570 Y142.062 E0.01976
G1 X149.999 Y142.107 E0.02874
G1 X149.428 Y142.062 E0.02874
G1 X149.042 Y141.982 E0.01977
G1 X148.674 Y141.864 E0.01941
G1 X148.320 Y141.709 E0.01941
G1 X147.983 Y141.519 E0.01941
G1 X147.668 Y141.295 E0.01940
G1 X147.372 Y141.035 E0.01977
G1 X146.999 Y140.610 E0.02838
G1 X146.779 Y140.283 E0.01976
G1 X146.597 Y139.942 E0.01941
G1 X146.452 Y139.584 E0.01941
G1 X146.343 Y139.213 E0.01941
G1 X146.274 Y138.832 E0.01941
G1 X146.244 Y138.440 E0.01977
G1 X146.273 Y137.875 E0.02838
G1 X146.343 Y137.487 E0.01977
G1 X146.452 Y137.116 E0.01941
G1 X146.597 Y136.758 E0.01941
G1 X146.751 Y136.470 E0.01640
G1 X147.075 Y136.594 F7800.000
G1 F1800.000
G1 X147.271 Y136.303 E0.01762
G1 X147.496 Y136.033 E0.01762
G1 X147.747 Y135.788 E0.01762
G1 X148.023 Y135.570 E0.01762
G1 X148.319 Y135.382 E0.01762
G1 X148.633 Y135.225 E0.01762
G1 X148.962 Y135.101 E0.01762
G1 X149.301 Y135.012 E0.01762
G1 X149.648 Y134.958 E0.01761
G1 X149.982 Y134.940 E0.01680
G1 X150.520 Y134.980 E0.02709
G1 X150.867 Y135.052 E0.01778
G1 X151.202 Y135.159 E0.01762
G1 X151.523 Y135.299 E0.01762
G1 X151.829 Y135.472 E0.01762
G1 X152.115 Y135.676 E0.01762
G1 X152.379 Y135.908 E0.01762
G1 X152.617 Y136.165 E0.01762
G1 X152.830 Y136.448 E0.01776
G1 X153.086 Y136.902 E0.02615
G1 X153.220 Y137.230 E0.01776
G1 X153.318 Y137.567 E0.01762
G1 X153.381 Y137.912 E0.01762
G1 X153.408 Y138.262 E0.01762
G1 X153.399 Y138.613 E0.01762
G1 X153.354 Y138.961 E0.01762
G1 X153.273 Y139.303 E0.01762
G1 X153.158 Y139.635 E0.01762
G1 X153.009 Y139.953 E0.01762
G1 X152.828 Y140.254 E0.01762
G1 X152.617 Y140.535 E0.01762
G1 X152.379 Y140.792 E0.01762
G1 X152.115 Y141.024 E0.01762
G1 X151.829 Y141.228 E0.01762
G1 X151.523 Y141.401 E0.01762
G1 X151.202 Y141.541 E0.01762
G1 X150.867 Y141.648 E0.01762
G1 X150.521 Y141.720 E0.01776
G1 X149.999 Y141.761 E0.02628
G1 X149.477 Y141.720 E0.02628
G1 X149.130 Y141.648 E0.01776
G1 X148.796 Y141.541 E0.01762
G1 X148.474 Y141.401 E0.01762
G1 X148.168 Y141.228 E0.01762
G1 X147.882 Y141.024 E0.01762
G1 X147.616 Y140.791 E0.01776
G1 X147.273 Y140.399 E0.02615
G1 X147.075 Y140.106 E0.01776
G1 X146.910 Y139.796 E0.01762
G1 X146.778 Y139.470 E0.01762
G1 X146.680 Y139.133 E0.01762
G1 X146.617 Y138.788 E0.01762
G1 X146.589 Y138.435 E0.01776
G1 X146.616 Y137.915 E0.02615
G1 X146.680 Y137.567 E0.01776
G1 X146.778 Y137.230 E0.01762
G1 X146.910 Y136.904 E0.01762
G1 X147.047 Y136.647 E0.01461
G1 X146.905 Y136.287 F7800.000
G1 E-2.24000 F4200.00000
G1 F6240.000
G1 X147.271 Y136.303 E-0.26268
G1 X147.496 Y136.033 E-0.22452
G1 X147.747 Y135.788 E-0.22452
G1 X147.993 Y135.594 E-0.20028
G1 E-0.04800 F4200.00000
G1 Z0.550 F7800.000
G1 X146.255 Y140.034
G1 Z0.350
G1 E3.20000 F2400.00000
G1 F1800.000
G1 X146.483 Y140.461 E0.02430
G1 X146.725 Y140.821 E0.02177
G1 X147.128 Y141.279 E0.03061
G1 X147.454 Y141.566 E0.02178
G1 X147.798 Y141.810 E0.02119
G1 X148.165 Y142.018 E0.02119
G1 X148.552 Y142.187 E0.02119
G1 X148.954 Y142.316 E0.02119
G1 X149.379 Y142.405 E0.02177
G1 X149.999 Y142.453 E0.03120
G1 X150.618 Y142.405 E0.03120
G1 X151.043 Y142.316 E0.02177
G1 X151.445 Y142.187 E0.02119
G1 X151.832 Y142.018 E0.02119
G1 X152.200 Y141.810 E0.02119
G1 X152.544 Y141.566 E0.02119
G1 X152.861 Y141.287 E0.02119
G1 X153.148 Y140.977 E0.02119
G1 X153.401 Y140.639 E0.02119
G1 X153.619 Y140.277 E0.02119
G1 X153.736 Y140.027 E0.01389
G1 X153.898 Y140.063 E0.00833
G1 X153.899 Y164.124 E1.20751
G1 X153.745 Y164.164 E0.00800
G1 X153.408 Y163.570 E0.03427
G1 X153.148 Y163.223 E0.02177
G1 X152.861 Y162.913 E0.02119
G1 X152.544 Y162.634 E0.02119
G1 X152.200 Y162.390 E0.02119
G1 X151.832 Y162.182 E0.02119
G1 X151.445 Y162.013 E0.02119
G1 X151.043 Y161.884 E0.02119
G1 X150.616 Y161.795 E0.02188
G1 X149.984 Y161.749 E0.03181
G1 X149.576 Y161.771 E0.02051
G1 X149.160 Y161.836 E0.02114
G1 X148.752 Y161.943 E0.02119
G1 X148.356 Y162.092 E0.02119
G1 X147.979 Y162.281 E0.02119
G1 X147.623 Y162.508 E0.02119
G1 X147.291 Y162.770 E0.02119
G1 X146.989 Y163.064 E0.02119
G1 X146.719 Y163.389 E0.02119
G1 X146.483 Y163.739 E0.02119
G1 X146.255 Y164.166 E0.02430
G1 X146.098 Y164.127 E0.00811
G1 X146.098 Y140.073 E1.20717
G1 X146.197 Y140.048 E0.00510
G1 E-2.24000 F4200.00000
G1 F6240.000
G1 X146.483 Y140.461 E-0.32105
G1 X146.725 Y140.821 E-0.27738
G1 X147.049 Y141.189 E-0.31357
G1 E-0.04800 F4200.00000
G1 Z0.550 F7800.000
G1 X153.737 Y167.525
G1 Z0.350
G1 E3.20000 F2400.00000
G1 F1800.000
G1 X153.899 Y167.561 E0.00833
G1 X153.899 Y168.252 E0.03470
G1 X153.332 Y168.253 E0.02844
G1 X153.618 Y167.778 E0.02785
G1 X153.711 Y167.579 E0.01102
G1 E-2.24000 F4200.00000
G1 F6240.000
G1 X153.899 Y167.561 E-0.12042
G1 X153.899 Y168.252 E-0.44212
G1 X153.352 Y168.253 E-0.34947
G1 E-0.04800 F4200.00000
G1 Z0.550 F7800.000
G1 X146.681 Y168.253
G1 Z0.350
G1 E3.20000 F2400.00000
G1 F1800.000
G1 X146.098 Y168.252 E0.02924
G1 X146.098 Y167.573 E0.03408
G1 X146.255 Y167.534 E0.00811
G1 X146.484 Y167.963 E0.02440
G1 X146.647 Y168.204 E0.01460
G1 E-2.24000 F4200.00000
G1 F6240.000
G1 X146.098 Y168.252 E-0.35236
G1 X146.098 Y167.573 E-0.43422
G1 X146.255 Y167.534 E-0.10332
G1 X146.272 Y167.564 E-0.02210
G1 E-0.04800 F4200.00000
G1 Z0.550 F7800.000
G1 X146.255 Y136.666
G1 Z0.350
G1 E3.20000 F2400.00000
G1 F1800.000
G1 X146.098 Y136.627 E0.00811
G1 X146.098 Y55.642 E4.06428
G1 X146.082 Y54.560 E0.05435
G1 X146.033 Y53.467 E0.05490
G1 X145.897 Y51.844 E0.08174
G1 X145.765 Y50.751 E0.05526
G1 X145.508 Y49.146 E0.08155
G1 X145.294 Y48.070 E0.05507
G1 X144.916 Y46.486 E0.08175
G1 X144.620 Y45.425 E0.05526
G1 X144.124 Y43.874 E0.08172
G1 X143.556 Y42.340 E0.08208
G1 X142.918 Y40.834 E0.08208
G1 X142.213 Y39.358 E0.08208
G1 X141.444 Y37.919 E0.08191
G1 X140.891 Y36.971 E0.05507
G1 X140.015 Y35.594 E0.08191
G1 X139.077 Y34.258 E0.08191
G1 X138.414 Y33.384 E0.05507
G1 X137.378 Y32.122 E0.08191
G1 X136.287 Y30.909 E0.08192
G1 X135.523 Y30.122 E0.05503
G1 X134.940 Y29.553 E0.04091
G1 X134.339 Y28.990 E0.04129
G1 X133.524 Y28.268 E0.05464
G1 X132.262 Y27.233 E0.08191
G1 X130.952 Y26.253 E0.08209
G1 X129.599 Y25.334 E0.08208
G1 X128.206 Y24.478 E0.08208
G1 X126.775 Y23.685 E0.08211
G1 X125.802 Y23.193 E0.05470
G1 X124.811 Y22.729 E0.05490
G1 X123.308 Y22.093 E0.08191
G1 X121.775 Y21.525 E0.08208
G1 X120.217 Y21.026 E0.08209
G1 X118.638 Y20.599 E0.08208
G1 X117.041 Y20.244 E0.08208
G1 X115.430 Y19.961 E0.08208
G1 X113.808 Y19.752 E0.08208
G1 X112.182 Y19.616 E0.08191
G1 X111.089 Y19.567 E0.05490
G1 X110.006 Y19.550 E0.05435
G1 X26.098 Y19.550 E4.21099
G1 X26.098 Y11.750 E0.39147
G1 X110.281 Y11.752 E4.22480
G1 X112.337 Y11.812 E0.10320
G1 X114.084 Y11.940 E0.08789
G1 X115.825 Y12.138 E0.08798
G1 X117.558 Y12.406 E0.08798
G1 X119.278 Y12.742 E0.08798
G1 X120.984 Y13.147 E0.08798
G1 X122.672 Y13.619 E0.08798
G1 X124.340 Y14.159 E0.08798
G1 X125.985 Y14.764 E0.08798
G1 X127.605 Y15.435 E0.08798
G1 X129.197 Y16.170 E0.08798
G1 X130.757 Y16.968 E0.08798
G1 X132.285 Y17.828 E0.08798
G1 X133.778 Y18.748 E0.08798
G1 X135.232 Y19.726 E0.08798
G1 X136.646 Y20.763 E0.08798
G1 X138.018 Y21.854 E0.08798
G1 X139.345 Y23.000 E0.08798
G1 X140.625 Y24.198 E0.08798
G1 X141.856 Y25.445 E0.08798
G1 X143.037 Y26.741 E0.08798
G1 X144.164 Y28.083 E0.08798
G1 X145.238 Y29.469 E0.08798
G1 X146.255 Y30.897 E0.08798
G1 X147.214 Y32.365 E0.08798
G1 X148.114 Y33.869 E0.08798
G1 X148.954 Y35.408 E0.08798
G1 X149.731 Y36.979 E0.08798
G1 X150.444 Y38.581 E0.08798
G1 X151.094 Y40.209 E0.08798
G1 X151.677 Y41.862 E0.08798
G1 X152.195 Y43.537 E0.08798
G1 X152.645 Y45.234 E0.08813
G1 X152.907 Y46.370 E0.05850
G1 X153.138 Y47.513 E0.05851
G1 X153.429 Y49.248 E0.08828
G1 X153.584 Y50.400 E0.05835
G1 X153.759 Y52.150 E0.08828
G1 X153.836 Y53.311 E0.05835
G1 X153.895 Y55.069 E0.08828
G1 X153.898 Y136.622 E4.09282
G1 X153.744 Y136.662 E0.00800
G1 X153.408 Y136.070 E0.03417
G1 X153.148 Y135.723 E0.02177
G1 X152.861 Y135.413 E0.02119
G1 X152.544 Y135.134 E0.02119
G1 X152.200 Y134.890 E0.02119
G1 X151.832 Y134.682 E0.02119
G1 X151.445 Y134.513 E0.02119
G1 X151.043 Y134.384 E0.02119
G1 X150.617 Y134.295 E0.02186
G1 X149.989 Y134.249 E0.03158
G1 X149.576 Y134.271 E0.02075
G1 X149.160 Y134.336 E0.02115
G1 X148.752 Y134.443 E0.02119
G1 X148.356 Y134.592 E0.02119
G1 X147.979 Y134.781 E0.02119
G1 X147.623 Y135.008 E0.02119
G1 X147.291 Y135.270 E0.02119
G1 X146.989 Y135.564 E0.02119
G1 X146.719 Y135.889 E0.02119
G1 X146.483 Y136.239 E0.02119
G1 X146.284 Y136.613 E0.02129
G1 E-2.24000 F4200.00000
G1 F6240.000
G1 X146.098 Y136.627 E-0.11863
G1 X146.098 Y135.386 E-0.79337
G1 E-0.04800 F4200.00000
G1 Z0.550 F7800.000
G1 X145.754 Y168.596
G1 Z0.350
G1 E3.20000 F2400.00000
G1 F1800.000
G1 X145.754 Y55.645 E5.66856
G1 X145.737 Y54.570 E0.05395
G1 X145.688 Y53.489 E0.05431
G1 X145.554 Y51.879 E0.08109
G1 X145.423 Y50.799 E0.05461
G1 X145.168 Y49.207 E0.08089
G1 X144.957 Y48.144 E0.05441
G1 X144.582 Y46.572 E0.08109
G1 X144.290 Y45.524 E0.05461
G1 X143.798 Y43.987 E0.08100
G1 X143.235 Y42.468 E0.08130
G1 X142.604 Y40.976 E0.08130
G1 X141.906 Y39.514 E0.08130
G1 X141.143 Y38.087 E0.08119
G1 X140.596 Y37.151 E0.05441
G1 X139.728 Y35.786 E0.08120
G1 X138.799 Y34.461 E0.08119
G1 X138.143 Y33.598 E0.05441
G1 X137.117 Y32.347 E0.08119
G1 X136.035 Y31.144 E0.08120
G1 X135.279 Y30.365 E0.05447
G1 X134.701 Y29.802 E0.04049
G1 X134.107 Y29.245 E0.04088
G1 X133.300 Y28.531 E0.05408
G1 X132.050 Y27.504 E0.08119
G1 X130.752 Y26.534 E0.08130
G1 X129.412 Y25.624 E0.08130
G1 X128.032 Y24.776 E0.08130
G1 X126.613 Y23.990 E0.08139
G1 X125.651 Y23.503 E0.05411
G1 X124.671 Y23.044 E0.05431
G1 X123.181 Y22.414 E0.08119
G1 X121.662 Y21.851 E0.08130
G1 X120.119 Y21.357 E0.08130
G1 X118.555 Y20.934 E0.08130
G1 X116.974 Y20.582 E0.08130
G1 X115.379 Y20.302 E0.08130
G1 X113.772 Y20.095 E0.08130
G1 X112.160 Y19.960 E0.08119
G1 X111.079 Y19.911 E0.05431
G1 X110.004 Y19.895 E0.05395
G1 X25.754 Y19.895 E4.22817
G1 X25.754 Y11.405 E0.42609
G1 X110.287 Y11.407 E4.24236
G1 X112.355 Y11.468 E0.10383
M73 P0 R142
G1 X114.116 Y11.597 E0.08862
G1 X115.871 Y11.796 E0.08867
G1 X117.617 Y12.066 E0.08867
G1 X119.351 Y12.405 E0.08867
G1 X121.070 Y12.813 E0.08867
G1 X122.772 Y13.289 E0.08867
G1 X124.453 Y13.833 E0.08867
G1 X126.111 Y14.443 E0.08867
G1 X127.743 Y15.119 E0.08867
G1 X129.347 Y15.860 E0.08867
G1 X130.921 Y16.664 E0.08867
G1 X132.460 Y17.531 E0.08867
G1 X133.964 Y18.458 E0.08867
G1 X135.430 Y19.444 E0.08867
G1 X136.855 Y20.488 E0.08867
G1 X138.238 Y21.589 E0.08867
G1 X139.575 Y22.743 E0.08867
G1 X140.865 Y23.950 E0.08867
G1 X142.106 Y25.208 E0.08867
G1 X143.296 Y26.514 E0.08867
G1 X144.433 Y27.867 E0.08867
G1 X145.515 Y29.264 E0.08867
G1 X146.540 Y30.703 E0.08867
G1 X147.507 Y32.182 E0.08867
G1 X148.414 Y33.698 E0.08867
G1 X149.260 Y35.249 E0.08867
G1 X150.043 Y36.833 E0.08867
G1 X150.762 Y38.446 E0.08867
G1 X151.417 Y40.088 E0.08867
G1 X152.005 Y41.754 E0.08867
G1 X152.526 Y43.442 E0.08867
G1 X152.980 Y45.151 E0.08876
G1 X153.244 Y46.297 E0.05902
G1 X153.477 Y47.450 E0.05902
G1 X153.771 Y49.196 E0.08886
G1 X153.926 Y50.360 E0.05893
G1 X154.103 Y52.122 E0.08886
G1 X154.181 Y53.293 E0.05893
G1 X154.240 Y55.063 E0.08886
G1 X154.244 Y168.596 E5.69778
G1 X152.720 Y168.610 E0.07648
G1 X152.667 Y168.469 E0.00754
G1 X152.735 Y168.416 E0.00430
G1 X153.109 Y167.956 E0.02976
G1 X153.314 Y167.615 E0.01995
G1 X153.478 Y167.265 E0.01942
G1 X153.605 Y166.900 E0.01941
G1 X153.694 Y166.523 E0.01941
G1 X153.743 Y166.140 E0.01941
G1 X153.753 Y165.753 E0.01941
G1 X153.723 Y165.368 E0.01940
G1 X153.654 Y164.987 E0.01941
G1 X153.546 Y164.616 E0.01941
G1 X153.398 Y164.251 E0.01976
G1 X153.119 Y163.759 E0.02838
G1 X152.883 Y163.444 E0.01976
G1 X152.620 Y163.160 E0.01941
